domains/upgrade/hsts-http/hsts-test/status.svg

<svg height="60" viewBox="0 0 413 60" width="413" xmlns="http://www.w3.org/2000/svg"><g fill="none" fill-rule="evenodd"><text fill="#f00" font-family="Zapf Dingbats" font-size="54" stroke="#fff" stroke-width="2"><tspan x="10" y="46">✗</tspan></text><path d="m53.3574219 43v-26.015625h3.6914062v10.96875h12.375v-10.96875h3.6914063v26.015625h-3.6914063v-12.2871094h-12.375v12.2871094zm31.5527343.6503906c-1.7461024 0-3.978502-.3808555-6.6972656-1.1425781v-3.65625c2.9297022 1.3593818 5.3378812 2.0390625 7.2246094 2.0390625 1.4531323 0 2.6220659-.3808556 3.5068359-1.1425781.8847701-.7617226 1.3271485-1.7636657 1.3271485-3.0058594 0-1.0195363-.2900362-1.8867152-.8701172-2.6015625s-1.6494063-1.5117144-3.2080078-2.390625l-1.7929688-1.0371094c-2.2148548-1.2656313-3.7763626-2.4580022-4.6845703-3.5771484s-1.3623047-2.4228441-1.3623047-3.9111328c0-2.0039163.7265553-3.6533139 2.1796875-4.9482422 1.4531323-1.2949284 3.3046763-1.9423828 5.5546875-1.9423828 2.0039163 0 4.1191295.333981 6.3457032 1.0019531v3.375c-2.7422013-1.0781304-4.7871027-1.6171875-6.1347657-1.6171875-1.2773501 0-2.3320271.3398404-3.1640625 1.0195312-.8320354.6796909-1.2480468 1.5351511-1.2480468 2.5664063 0 .8671918.3046844 1.6347623.9140624 2.3027344.6093781.6679721 1.7226482 1.4648391 3.3398438 2.390625l1.8632812 1.0546875c2.2500113 1.2773501 3.8203081 2.4843693 4.7109376 3.6210937.8906294 1.1367245 1.3359374 2.5019452 1.3359374 4.0957031 0 2.2617301-.8349525 4.0781182-2.5048828 5.4492188-1.6699302 1.3711006-3.8818221 2.0566406-6.6357422 2.0566406zm20.4785158-.6503906v-23.2558594h-9.2285158v-2.7597656h22.1484378v2.7597656h-9.228516v23.2558594zm21.673828.6503906c-1.746102 0-3.978502-.3808555-6.697266-1.1425781v-3.65625c2.929703 1.3593818 5.337882 2.0390625 7.22461 2.0390625 1.453132 0 2.622066-.3808556 3.506836-1.1425781.88477-.7617226 1.327148-1.7636657 1.327148-3.0058594 0-1.0195363-.290036-1.8867152-.870117-2.6015625s-1.649406-1.5117144-3.208008-2.390625l-1.792969-1.0371094c-2.214854-1.2656313-3.776362-2.4580022-4.68457-3.5771484s-1.362305-2.4228441-1.362305-3.9111328c0-2.0039163.726556-3.6533139 2.179688-4.9482422 1.453132-1.2949284 3.304676-1.9423828 5.554687-1.9423828 2.003917 0 4.11913.333981 6.345704 1.0019531v3.375c-2.742202-1.0781304-4.787103-1.6171875-6.134766-1.6171875-1.27735 0-2.332027.3398404-3.164063 1.0195312-.832035.6796909-1.248047 1.5351511-1.248047 2.5664063 0 .8671918.304685 1.6347623.914063 2.3027344s1.722648 1.4648391 3.339844 2.390625l1.863281 1.0546875c2.250011 1.2773501 3.820308 2.4843693 4.710938 3.6210937.890629 1.1367245 1.335937 2.5019452 1.335937 4.0957031 0 2.2617301-.834953 4.0781182-2.504883 5.4492188s-3.881822 2.0566406-6.635742 2.0566406zm25.787109-.6503906v-19.0898438h3.462891v19.0898438zm0-22.5527344v-3.4628906h3.462891v3.4628906zm15.46875 22.9921875c-1.582039 0-3.503895-.3691369-5.765625-1.1074219v-3.1816406c2.26173 1.1250057 4.230461 1.6875 5.90625 1.6875.996099 0 1.822263-.2695285 2.478516-.8085937s.984375-1.2128866.984375-2.0214844c0-1.1835997-.919913-2.1621055-2.759766-2.9355469l-2.021484-.8613281c-2.988296-1.2421937-4.482422-3.0292852-4.482422-5.3613281 0-1.6640708.588861-2.9736281 1.766602-3.928711 1.17774-.9550829 2.791982-1.4326172 4.842773-1.4326172 1.066412 0 2.384758.146483 3.955078.4394532l.720703.140625v2.8828125c-1.933603-.5742216-3.468744-.8613281-4.605468-.8613281-2.226574 0-3.339844.8085856-3.339844 2.4257812 0 1.042974.843741 1.9218714 2.53125 2.6367188l1.669922.703125c1.886728.7968789 3.222652 1.6376908 4.007812 2.5224609.78516.88477 1.177735 1.9892512 1.177735 3.3134765 0 1.6757897-.662103 3.052729-1.986328 4.1308594-1.324226 1.0781304-3.017568 1.6171875-5.080079 1.6171875zm24.679688-.4394531v-19.0898438h3.462891v3.5859376c1.828134-2.6718884 4.066393-4.0078126 6.714843-4.0078126 1.652352 0 2.970698.5244089 3.955078 1.5732422.98438 1.0488334 1.476563 2.457999 1.476563 4.2275391v13.7109375h-3.462891v-12.5859375c0-1.4179758-.208005-2.4287079-.624023-3.0322266-.416018-.6035186-1.104488-.9052734-2.06543-.9052734-2.121104 0-4.119131 1.388658-5.99414 4.1660156v12.3574219zm29.8125.4394531c-2.730483 0-4.910148-.9052644-6.539063-2.7158203-1.628914-1.8105559-2.443359-4.2333832-2.443359-7.2685547 0-3.0703278.817375-5.4990145 2.452148-7.2861328 1.634774-1.7871183 3.852525-2.6806641 6.653321-2.6806641 2.800795 0 5.018546.8935458 6.65332 2.6806641s2.452148 4.2040863 2.452148 7.2509766c0 3.1172031-.820304 5.5663973-2.460937 7.3476562s-3.89647 2.671875-6.767578 2.671875zm.052734-2.6015625c3.667987 0 5.501953-2.4726315 5.501953-7.4179687 0-4.8867432-1.810528-7.3300781-5.43164-7.3300781-3.609393 0-5.414063 2.4550535-5.414063 7.3652343 0 4.9218996 1.781232 7.3828125 5.34375 7.3828125zm20.320313 2.6015625c-1.757822 0-3.128902-.5039012-4.113281-1.5117187-.98438-1.0078176-1.476563-2.4081942-1.476563-4.2011719v-11.2148437h-2.390625v-2.6015626h2.390625v-3.4628906l3.462891-.3339844v3.796875h4.992187v2.6015626h-4.992187v10.5820312c0 2.4961062 1.078114 3.7441406 3.234375 3.7441406.457033 0 1.013668-.0761711 1.669922-.2285156v2.390625c-1.066412.2929702-1.992184.4394531-2.777344.4394531zm21.339844-.4394531-5.466797-19.0898438h3.392578l4.183593 14.7832032 4.517579-14.7832032h3.46289l3.955078 14.7832032 4.798829-14.7832032h2.970703l-6.222657 19.0898438h-3.480468l-4.042969-14.7832031-4.570313 14.7832031zm32.99414.4394531c-2.730482 0-4.910148-.9052644-6.539062-2.7158203-1.628915-1.8105559-2.44336-4.2333832-2.44336-7.2685547 0-3.0703278.817375-5.4990145 2.452149-7.2861328 1.634773-1.7871183 3.852525-2.6806641 6.65332-2.6806641s5.018547.8935458 6.65332 2.6806641c1.634774 1.7871183 2.452149 4.2040863 2.452149 7.2509766 0 3.1172031-.820305 5.5663973-2.460938 7.3476562s-3.89647 2.671875-6.767578 2.671875zm.052734-2.6015625c3.667988 0 5.501954-2.4726315 5.501954-7.4179687 0-4.8867432-1.810529-7.3300781-5.431641-7.3300781-3.609393 0-5.414063 2.4550535-5.414063 7.3652343 0 4.9218996 1.781233 7.3828125 5.34375 7.3828125zm14.589844 2.1621094v-19.0898438h3.462891v3.5859376c1.3711-2.6718884 3.363268-4.0078126 5.976562-4.0078126.351565 0 .720702.0292966 1.107422.0878907v3.234375c-.597659-.1992198-1.124997-.2988281-1.582031-.2988281-2.191417 0-4.025383 1.3007682-5.501953 3.9023437v12.5859375zm14.730469 0v-27.7558594h3.462891v17.9296875l8.085937-9.2636719h3.726563l-7.716797 8.9121094 9.316406 10.1777344h-4.429687l-8.982422-9.7910156v9.7910156zm21.041016 0v-19.0898438h3.46289v19.0898438zm0-22.5527344v-3.4628906h3.46289v3.4628906zm10.40625 22.5527344v-19.0898438h3.46289v3.5859376c1.828134-2.6718884 4.066393-4.0078126 6.714844-4.0078126 1.652352 0 2.970698.5244089 3.955078 1.5732422.98438 1.0488334 1.476563 2.457999 1.476563 4.2275391v13.7109375h-3.462891v-12.5859375c0-1.4179758-.208006-2.4287079-.624023-3.0322266-.416018-.6035186-1.104488-.9052734-2.06543-.9052734-2.121104 0-4.119131 1.388658-5.994141 4.1660156v12.3574219zm22.412109 6.3457031.404297-3.0058593c2.003916.9492234 3.978506 1.4238281 5.923828 1.4238281 3.902363 0 5.853516-2.0683387 5.853516-6.2050781v-3.0058594c-1.277351 2.6718883-3.374986 4.0078125-6.292969 4.0078125-2.285168 0-4.101556-.832023-5.449219-2.4960938s-2.021484-3.908189-2.021484-6.7324219c0-2.9062645.76757-5.2734283 2.302734-7.1015624 1.535164-1.8281342 3.521472-2.7421876 5.958985-2.7421876 2.132823 0 3.966789.8671789 5.501953 2.6015626v-2.1796876h3.480468v13.8867188c0 2.9882962-.155272 5.2001881-.46582 6.6357422-.310548 1.435554-.89355 2.610347-1.749023 3.524414-1.511727 1.6054768-3.861313 2.4082032-7.048828 2.4082032-2.226574 0-4.359365-.3398404-6.398438-1.0195313zm12.181641-12.9550781v-7.9277344c-1.523445-1.5820391-3.181632-2.3730468-4.97461-2.3730468-1.593758 0-2.841792.6386654-3.74414 1.9160156-.902349 1.2773501-1.353516 3.0292857-1.353516 5.2558594 0 4.1836146 1.470688 6.2753906 4.412109 6.2753906 2.003917 0 3.890617-1.0488177 5.660157-3.1464844zm10.248047 6.609375v-4.3417969h4.341796v4.3417969z" fill="#fff"/></g></svg>

<?xml version="1.0" encoding="UTF-8" standalone="no"?>
<svg width="413px" height="60px" viewBox="0 0 413 60" version="1.1" xmlns="http://www.w3.org/2000/svg" xmlns:xlink="http://www.w3.org/1999/xlink">
    <defs></defs>
    <g id="Page-1" stroke="none" stroke-width="1" fill="none" fill-rule="evenodd">
        <g id="hsts-http">
            <text id="✗" stroke="#FFFFFF" stroke-width="2" font-family="Zapf Dingbats" font-size="54" font-weight="normal" fill="#FF0000">
                <tspan x="10" y="46">✗</tspan>
            </text>
            <path d="M53.3574219,43 L53.3574219,16.984375 L57.0488281,16.984375 L57.0488281,27.953125 L69.4238281,27.953125 L69.4238281,16.984375 L73.1152344,16.984375 L73.1152344,43 L69.4238281,43 L69.4238281,30.7128906 L57.0488281,30.7128906 L57.0488281,43 L53.3574219,43 Z M84.9101562,43.6503906 C83.1640538,43.6503906 80.9316542,43.2695351 78.2128906,42.5078125 L78.2128906,38.8515625 C81.1425928,40.2109443 83.5507718,40.890625 85.4375,40.890625 C86.8906323,40.890625 88.0595659,40.5097694 88.9443359,39.7480469 C89.829106,38.9863243 90.2714844,37.9843812 90.2714844,36.7421875 C90.2714844,35.7226512 89.9814482,34.8554723 89.4013672,34.140625 C88.8212862,33.4257777 87.7519609,32.6289106 86.1933594,31.75 L84.4003906,30.7128906 C82.1855358,29.4472593 80.624028,28.2548884 79.7158203,27.1357422 C78.8076126,26.016596 78.3535156,24.7128981 78.3535156,23.2246094 C78.3535156,21.2206931 79.0800709,19.5712955 80.5332031,18.2763672 C81.9863354,16.9814388 83.8378794,16.3339844 86.0878906,16.3339844 C88.0918069,16.3339844 90.2070201,16.6679654 92.4335938,17.3359375 L92.4335938,20.7109375 C89.6913925,19.6328071 87.6464911,19.09375 86.2988281,19.09375 C85.021478,19.09375 83.966801,19.4335904 83.1347656,20.1132812 C82.3027302,20.7929721 81.8867188,21.6484323 81.8867188,22.6796875 C81.8867188,23.5468793 82.1914032,24.3144498 82.8007812,24.9824219 C83.4101593,25.650394 84.5234294,26.447261 86.140625,27.3730469 L88.0039062,28.4277344 C90.2539175,29.7050845 91.8242143,30.9121037 92.7148438,32.0488281 C93.6054732,33.1855526 94.0507812,34.5507733 94.0507812,36.1445312 C94.0507812,38.4062613 93.2158287,40.2226494 91.5458984,41.59375 C89.8759682,42.9648506 87.6640763,43.6503906 84.9101562,43.6503906 L84.9101562,43.6503906 Z M105.388672,43 L105.388672,19.7441406 L96.1601562,19.7441406 L96.1601562,16.984375 L118.308594,16.984375 L118.308594,19.7441406 L109.080078,19.7441406 L109.080078,43 L105.388672,43 Z M127.0625,43.6503906 C125.316398,43.6503906 123.083998,43.2695351 120.365234,42.5078125 L120.365234,38.8515625 C123.294937,40.2109443 125.703116,40.890625 127.589844,40.890625 C129.042976,40.890625 130.21191,40.5097694 131.09668,39.7480469 C131.98145,38.9863243 132.423828,37.9843812 132.423828,36.7421875 C132.423828,35.7226512 132.133792,34.8554723 131.553711,34.140625 C130.97363,33.4257777 129.904305,32.6289106 128.345703,31.75 L126.552734,30.7128906 C124.33788,29.4472593 122.776372,28.2548884 121.868164,27.1357422 C120.959956,26.016596 120.505859,24.7128981 120.505859,23.2246094 C120.505859,21.2206931 121.232415,19.5712955 122.685547,18.2763672 C124.138679,16.9814388 125.990223,16.3339844 128.240234,16.3339844 C130.244151,16.3339844 132.359364,16.6679654 134.585938,17.3359375 L134.585938,20.7109375 C131.843736,19.6328071 129.798835,19.09375 128.451172,19.09375 C127.173822,19.09375 126.119145,19.4335904 125.287109,20.1132812 C124.455074,20.7929721 124.039062,21.6484323 124.039062,22.6796875 C124.039062,23.5468793 124.343747,24.3144498 124.953125,24.9824219 C125.562503,25.650394 126.675773,26.447261 128.292969,27.3730469 L130.15625,28.4277344 C132.406261,29.7050845 133.976558,30.9121037 134.867188,32.0488281 C135.757817,33.1855526 136.203125,34.5507733 136.203125,36.1445312 C136.203125,38.4062613 135.368172,40.2226494 133.698242,41.59375 C132.028312,42.9648506 129.81642,43.6503906 127.0625,43.6503906 L127.0625,43.6503906 Z M152.849609,43 L152.849609,23.9101562 L156.3125,23.9101562 L156.3125,43 L152.849609,43 Z M152.849609,20.4472656 L152.849609,16.984375 L156.3125,16.984375 L156.3125,20.4472656 L152.849609,20.4472656 Z M168.318359,43.4394531 C166.73632,43.4394531 164.814464,43.0703162 162.552734,42.3320312 L162.552734,39.1503906 C164.814464,40.2753963 166.783195,40.8378906 168.458984,40.8378906 C169.455083,40.8378906 170.281247,40.5683621 170.9375,40.0292969 C171.593753,39.4902317 171.921875,38.8164103 171.921875,38.0078125 C171.921875,36.8242128 171.001962,35.845707 169.162109,35.0722656 L167.140625,34.2109375 C164.152329,32.9687438 162.658203,31.1816523 162.658203,28.8496094 C162.658203,27.1855386 163.247064,25.8759813 164.424805,24.9208984 C165.602545,23.9658155 167.216787,23.4882812 169.267578,23.4882812 C170.33399,23.4882812 171.652336,23.6347642 173.222656,23.9277344 L173.943359,24.0683594 L173.943359,26.9511719 C172.009756,26.3769503 170.474615,26.0898438 169.337891,26.0898438 C167.111317,26.0898438 165.998047,26.8984294 165.998047,28.515625 C165.998047,29.558599 166.841788,30.4374964 168.529297,31.1523438 L170.199219,31.8554688 C172.085947,32.6523477 173.421871,33.4931596 174.207031,34.3779297 C174.992191,35.2626997 175.384766,36.3671809 175.384766,37.6914062 C175.384766,39.3671959 174.722663,40.7441352 173.398438,41.8222656 C172.074212,42.900396 170.38087,43.4394531 168.318359,43.4394531 L168.318359,43.4394531 Z M192.998047,43 L192.998047,23.9101562 L196.460938,23.9101562 L196.460938,27.4960938 C198.289072,24.8242054 200.527331,23.4882812 203.175781,23.4882812 C204.828133,23.4882812 206.146479,24.0126901 207.130859,25.0615234 C208.115239,26.1103568 208.607422,27.5195224 208.607422,29.2890625 L208.607422,43 L205.144531,43 L205.144531,30.4140625 C205.144531,28.9960867 204.936526,27.9853546 204.520508,27.3818359 C204.10449,26.7783173 203.41602,26.4765625 202.455078,26.4765625 C200.333974,26.4765625 198.335947,27.8652205 196.460938,30.6425781 L196.460938,43 L192.998047,43 Z M222.810547,43.4394531 C220.080064,43.4394531 217.900399,42.5341887 216.271484,40.7236328 C214.64257,38.9130769 213.828125,36.4902496 213.828125,33.4550781 C213.828125,30.3847503 214.6455,27.9560636 216.280273,26.1689453 C217.915047,24.381827 220.132798,23.4882812 222.933594,23.4882812 C225.734389,23.4882812 227.95214,24.381827 229.586914,26.1689453 C231.221688,27.9560636 232.039062,30.3730316 232.039062,33.4199219 C232.039062,36.537125 231.218758,38.9863192 229.578125,40.7675781 C227.937492,42.548837 225.681655,43.4394531 222.810547,43.4394531 L222.810547,43.4394531 Z M222.863281,40.8378906 C226.531268,40.8378906 228.365234,38.3652591 228.365234,33.4199219 C228.365234,28.5331787 226.554706,26.0898438 222.933594,26.0898438 C219.324201,26.0898438 217.519531,28.5448973 217.519531,33.4550781 C217.519531,38.3769777 219.300763,40.8378906 222.863281,40.8378906 L222.863281,40.8378906 Z M243.183594,43.4394531 C241.425772,43.4394531 240.054692,42.9355519 239.070313,41.9277344 C238.085933,40.9199168 237.59375,39.5195402 237.59375,37.7265625 L237.59375,26.5117188 L235.203125,26.5117188 L235.203125,23.9101562 L237.59375,23.9101562 L237.59375,20.4472656 L241.056641,20.1132812 L241.056641,23.9101562 L246.048828,23.9101562 L246.048828,26.5117188 L241.056641,26.5117188 L241.056641,37.09375 C241.056641,39.5898562 242.134755,40.8378906 244.291016,40.8378906 C244.748049,40.8378906 245.304684,40.7617195 245.960938,40.609375 L245.960938,43 C244.894526,43.2929702 243.968754,43.4394531 243.183594,43.4394531 L243.183594,43.4394531 Z M264.523438,43 L259.056641,23.9101562 L262.449219,23.9101562 L266.632812,38.6933594 L271.150391,23.9101562 L274.613281,23.9101562 L278.568359,38.6933594 L283.367188,23.9101562 L286.337891,23.9101562 L280.115234,43 L276.634766,43 L272.591797,28.2167969 L268.021484,43 L264.523438,43 Z M297.517578,43.4394531 C294.787096,43.4394531 292.60743,42.5341887 290.978516,40.7236328 C289.349601,38.9130769 288.535156,36.4902496 288.535156,33.4550781 C288.535156,30.3847503 289.352531,27.9560636 290.987305,26.1689453 C292.622078,24.381827 294.83983,23.4882812 297.640625,23.4882812 C300.44142,23.4882812 302.659172,24.381827 304.293945,26.1689453 C305.928719,27.9560636 306.746094,30.3730316 306.746094,33.4199219 C306.746094,36.537125 305.925789,38.9863192 304.285156,40.7675781 C302.644523,42.548837 300.388686,43.4394531 297.517578,43.4394531 L297.517578,43.4394531 Z M297.570312,40.8378906 C301.2383,40.8378906 303.072266,38.3652591 303.072266,33.4199219 C303.072266,28.5331787 301.261737,26.0898438 297.640625,26.0898438 C294.031232,26.0898438 292.226562,28.5448973 292.226562,33.4550781 C292.226562,38.3769777 294.007795,40.8378906 297.570312,40.8378906 L297.570312,40.8378906 Z M312.160156,43 L312.160156,23.9101562 L315.623047,23.9101562 L315.623047,27.4960938 C316.994147,24.8242054 318.986315,23.4882812 321.599609,23.4882812 C321.951174,23.4882812 322.320311,23.5175778 322.707031,23.5761719 L322.707031,26.8105469 C322.109372,26.6113271 321.582034,26.5117188 321.125,26.5117188 C318.933583,26.5117188 317.099617,27.812487 315.623047,30.4140625 L315.623047,43 L312.160156,43 Z M326.890625,43 L326.890625,15.2441406 L330.353516,15.2441406 L330.353516,33.1738281 L338.439453,23.9101562 L342.166016,23.9101562 L334.449219,32.8222656 L343.765625,43 L339.335938,43 L330.353516,33.2089844 L330.353516,43 L326.890625,43 Z M347.931641,43 L347.931641,23.9101562 L351.394531,23.9101562 L351.394531,43 L347.931641,43 Z M347.931641,20.4472656 L347.931641,16.984375 L351.394531,16.984375 L351.394531,20.4472656 L347.931641,20.4472656 Z M358.337891,43 L358.337891,23.9101562 L361.800781,23.9101562 L361.800781,27.4960938 C363.628915,24.8242054 365.867174,23.4882812 368.515625,23.4882812 C370.167977,23.4882812 371.486323,24.0126901 372.470703,25.0615234 C373.455083,26.1103568 373.947266,27.5195224 373.947266,29.2890625 L373.947266,43 L370.484375,43 L370.484375,30.4140625 C370.484375,28.9960867 370.276369,27.9853546 369.860352,27.3818359 C369.444334,26.7783173 368.755864,26.4765625 367.794922,26.4765625 C365.673818,26.4765625 363.675791,27.8652205 361.800781,30.6425781 L361.800781,43 L358.337891,43 Z M380.75,49.3457031 L381.154297,46.3398438 C383.158213,47.2890672 385.132803,47.7636719 387.078125,47.7636719 C390.980488,47.7636719 392.931641,45.6953332 392.931641,41.5585938 L392.931641,38.5527344 C391.65429,41.2246227 389.556655,42.5605469 386.638672,42.5605469 C384.353504,42.5605469 382.537116,41.7285239 381.189453,40.0644531 C379.84179,38.4003823 379.167969,36.1562641 379.167969,33.3320312 C379.167969,30.4257667 379.935539,28.0586029 381.470703,26.2304688 C383.005867,24.4023346 384.992175,23.4882812 387.429688,23.4882812 C389.562511,23.4882812 391.396477,24.3554601 392.931641,26.0898438 L392.931641,23.9101562 L396.412109,23.9101562 L396.412109,37.796875 C396.412109,40.7851712 396.256837,42.9970631 395.946289,44.4326172 C395.635741,45.8681712 395.052739,47.0429642 394.197266,47.9570312 C392.685539,49.562508 390.335953,50.3652344 387.148438,50.3652344 C384.921864,50.3652344 382.789073,50.025394 380.75,49.3457031 L380.75,49.3457031 Z M392.931641,36.390625 L392.931641,28.4628906 C391.408196,26.8808515 389.750009,26.0898438 387.957031,26.0898438 C386.363273,26.0898438 385.115239,26.7285092 384.212891,28.0058594 C383.310542,29.2832095 382.859375,31.0351451 382.859375,33.2617188 C382.859375,37.4453334 384.330063,39.5371094 387.271484,39.5371094 C389.275401,39.5371094 391.162101,38.4882917 392.931641,36.390625 L392.931641,36.390625 Z M403.179688,43 L403.179688,38.6582031 L407.521484,38.6582031 L407.521484,43 L403.179688,43 Z" id="HSTS-is-not-working.-Copy" fill="#FFFFFF"></path>
        </g>
    </g>
</svg>
